X: 882
T: Eight men of Mudart
R: reel
B: Robert Bremner "A Collection of Scots Reels or Country Dances" 1757 p.88 #2
S: http://imslp.org/wiki/A_Collection_of_Scots_Reels_or_Country_Dances_(Bremner,_Robert)
Z: 2013 John Chambers <jc:trillian.mit.edu>
M: C
L: 1/8
K: Amix
% - - - - - - - - - - - - - - - - - - - - - - - - -
V: 1
e |\
A/A/A Ae TcAec | B/B/B Bg BGGB |\
A/A/A Ae  cAec | B/B/B ed TcAA :|\
|: e |\
a>bae a>bae | g>agd BGGB |
a>bae abae | dBed cAAe |\
a>bae a>bae | g>agd BGGg |\
afge fdec | dBed TcAA :|
% - - - - - - - - - - - - - - - - - - - - - - - - -
V: 2 clef=bass middle=d
z |\
a2a2 a2a2 | g2g2 g2g2 |\
a2a2 a2a2 | e2e2 A2A :|\
|: z |\
a2a2 a2a2 |
g2g2 g2g2 |\
a2a2 a2a2 | e2e2 A2A2 |\
a2a2 a2a2 | g2g2 g2g2 |\
a2a2 a2a2 | e2e2 A2A :|
% - - - - - - - - - - - - - - - - - - - - - - - - -

%%sep 1 1 500
%%sep 1 1 500
